<?xml version="1.0" encoding="UTF-8"?>
<logo:LogoProgram xmi:version="2.0" xmlns:xmi="http://www.omg.org/XMI" xmlns:xsi="http://www.w3.org/2001/XMLSchema-instance" xmlns:logo="http://www.kermeta.org/kmLogo">
  <instructions xsi:type="logo:ProcDeclaration" name="etoile" procCall="//@instructions.0/@instructions.0/@elsePart/@instructions.2 //@instructions.3">
    <args name="taille"/>
    <args name="angle"/>
    <instructions xsi:type="logo:If">
      <condition xsi:type="logo:Greater">
        <lhs xsi:type="logo:ParameterCall" parameter="//@instructions.0/@args.0"/>
        <rhs xsi:type="logo:Constant" integerValue="300"/>
      </condition>
      <thenPart/>
      <elsePart>
        <instructions xsi:type="logo:Forward">
          <steps xsi:type="logo:ParameterCall" parameter="//@instructions.0/@args.0"/>
        </instructions>
        <instructions xsi:type="logo:Right">
          <angle xsi:type="logo:ParameterCall" parameter="//@instructions.0/@args.1"/>
        </instructions>
        <instructions xsi:type="logo:ProcCall" declaration="//@instructions.0">
          <actualArgs xsi:type="logo:Plus">
            <lhs xsi:type="logo:ParameterCall" parameter="//@instructions.0/@args.0"/>
            <rhs xsi:type="logo:Constant" integerValue="9"/>
          </actualArgs>
          <actualArgs xsi:type="logo:Plus">
            <lhs xsi:type="logo:ParameterCall" parameter="//@instructions.0/@args.1"/>
            <rhs xsi:type="logo:Constant" integerValue="1"/>
          </actualArgs>
        </instructions>
      </elsePart>
    </instructions>
  </instructions>
  <instructions xsi:type="logo:Clear"/>
  <instructions xsi:type="logo:PenDown"/>
  <instructions xsi:type="logo:ProcCall" declaration="//@instructions.0">
    <actualArgs xsi:type="logo:Constant" integerValue="5"/>
    <actualArgs xsi:type="logo:Constant" integerValue="120"/>
  </instructions>
  <instructions xsi:type="logo:PenUp"/>
</logo:LogoProgram>
