<?xml version="1.0" encoding="UTF-8"?>
<logo:LogoProgram xmi:version="2.0" xmlns:xmi="http://www.omg.org/XMI" xmlns:xsi="http://www.w3.org/2001/XMLSchema-instance" xmlns:logo="http://www.kermeta.org/kmLogo">
  <instructions xsi:type="logo:ProcDeclaration" name="koch" procCall="//@instructions.0/@instructions.0/@elsePart/@instructions.0 //@instructions.0/@instructions.0/@elsePart/@instructions.2 //@instructions.0/@instructions.0/@elsePart/@instructions.4 //@instructions.0/@instructions.0/@elsePart/@instructions.6 //@instructions.4">
    <args name="y"/>
    <args name="etape"/>
    <instructions xsi:type="logo:If">
      <condition xsi:type="logo:Equals">
        <lhs xsi:type="logo:ParameterCall" parameter="//@instructions.0/@args.1"/>
        <rhs xsi:type="logo:Constant"/>
      </condition>
      <thenPart>
        <instructions xsi:type="logo:Forward">
          <steps xsi:type="logo:Div">
            <lhs xsi:type="logo:ParameterCall" parameter="//@instructions.0/@args.0"/>
            <rhs xsi:type="logo:Constant" integerValue="3"/>
          </steps>
        </instructions>
      </thenPart>
      <elsePart>
        <instructions xsi:type="logo:ProcCall" declaration="//@instructions.0">
          <actualArgs xsi:type="logo:Div">
            <lhs xsi:type="logo:ParameterCall" parameter="//@instructions.0/@args.0"/>
            <rhs xsi:type="logo:Constant" integerValue="3"/>
          </actualArgs>
          <actualArgs xsi:type="logo:Minus">
            <lhs xsi:type="logo:ParameterCall" parameter="//@instructions.0/@args.1"/>
            <rhs xsi:type="logo:Constant" integerValue="1"/>
          </actualArgs>
        </instructions>
        <instructions xsi:type="logo:Left">
          <angle xsi:type="logo:Constant" integerValue="60"/>
        </instructions>
        <instructions xsi:type="logo:ProcCall" declaration="//@instructions.0">
          <actualArgs xsi:type="logo:Div">
            <lhs xsi:type="logo:ParameterCall" parameter="//@instructions.0/@args.0"/>
            <rhs xsi:type="logo:Constant" integerValue="3"/>
          </actualArgs>
          <actualArgs xsi:type="logo:Minus">
            <lhs xsi:type="logo:ParameterCall" parameter="//@instructions.0/@args.1"/>
            <rhs xsi:type="logo:Constant" integerValue="1"/>
          </actualArgs>
        </instructions>
        <instructions xsi:type="logo:Right">
          <angle xsi:type="logo:Constant" integerValue="120"/>
        </instructions>
        <instructions xsi:type="logo:ProcCall" declaration="//@instructions.0">
          <actualArgs xsi:type="logo:Div">
            <lhs xsi:type="logo:ParameterCall" parameter="//@instructions.0/@args.0"/>
            <rhs xsi:type="logo:Constant" integerValue="3"/>
          </actualArgs>
          <actualArgs xsi:type="logo:Minus">
            <lhs xsi:type="logo:ParameterCall" parameter="//@instructions.0/@args.1"/>
            <rhs xsi:type="logo:Constant" integerValue="1"/>
          </actualArgs>
        </instructions>
        <instructions xsi:type="logo:Left">
          <angle xsi:type="logo:Constant" integerValue="60"/>
        </instructions>
        <instructions xsi:type="logo:ProcCall" declaration="//@instructions.0">
          <actualArgs xsi:type="logo:Div">
            <lhs xsi:type="logo:ParameterCall" parameter="//@instructions.0/@args.0"/>
            <rhs xsi:type="logo:Constant" integerValue="3"/>
          </actualArgs>
          <actualArgs xsi:type="logo:Minus">
            <lhs xsi:type="logo:ParameterCall" parameter="//@instructions.0/@args.1"/>
            <rhs xsi:type="logo:Constant" integerValue="1"/>
          </actualArgs>
        </instructions>
      </elsePart>
    </instructions>
  </instructions>
  <instructions xsi:type="logo:Clear"/>
  <instructions xsi:type="logo:Back">
    <steps xsi:type="logo:Constant" integerValue="200"/>
  </instructions>
  <instructions xsi:type="logo:PenDown"/>
  <instructions xsi:type="logo:ProcCall" declaration="//@instructions.0">
    <actualArgs xsi:type="logo:Constant" integerValue="1000"/>
    <actualArgs xsi:type="logo:Constant" integerValue="4"/>
  </instructions>
  <instructions xsi:type="logo:PenUp"/>
</logo:LogoProgram>
